X: 98
M: 6/8
L: 1/8
K: G
|: d |\
d>ef gag | f>ed edB | d>ef gag | f>ed e2d |\
d>ef gdB | c>de dBG | A>GA BGD | E2F G2 H:|

